X:1
T:An Open Bible for the World
T:An Open Bible for the World
T:William James Kirkpatrick
T:Henry M. King, circa 1881
T:Public Domain Courtesy of the Cyber Hymnal™
T:Public Domain Courtesy of the Cyber Hymnal™
C:William James Kirkpatrick
Z:Public Domain
Z:Courtesy of the Cyber Hymnal™
%%score ( 1 2 ) ( 3 4 )
L:1/8
Q:1/4=110
M:4/4
K:Bb
V:1 treble 
V:2 treble 
V:3 bass 
V:4 bass 
V:1
 F2 | B2 B2 B>F D>E | F6 F2 | [EG]2 [EG]2 [=Ec]>[EB] [EA]>[EB] | [Fc]6 F2 | B2 B2 B>F D>E | F6 F2 | %7
w: 1.~An|o- pen Bi- ble for the|world— May|this our glor- ious mot- to|be! On|ev- ’ry breeze its flag un-|furled Shall|
w: 2.~Wher-|e’er it goes its gold- en|light, Stream-|ing as from an un- veiled|sun, Shall|dis- si- pate the clouds of|night, Un-|
w: 3.~It|shows to men the Fa- ther’s|face, All|rad- iant with for- giv- ing|love; And|to the lost of Ad- am’s|race Pro-|
w: 4.~It|of- fers rest to wear- y|hearts, It|com- forts those who sit in|tears; To|all who faint, it strength im-|parts, And|
 [EG]2 [Ec]2 [DB]>[FA] [EG]>[EA] | [DB]4 z ||"^Refrain" [DB][CA]>[DB] | [Ec]4- [Ec][Ec] [DB]>[Ec] | %11
w: scat- ter bless- ings rich and|free.|||
w: do the work that sin has|done.|Blest Word of|God! * send forth thy|
w: claims sweet mer- cy from a-|bove.|||
w: gilds with hope th’e- ter- nal|years.|||
 [Fd]4- [Fd][Fd] [Fc]>[Fd] | [Ee]2 [Fd]2 [Gc]2 [GB]2 | c4 !fermata![Fc]F [=EG]>[_EA] | %14
w: |||
w: light. * O’er ev- ery|land and ev- ery|sea, Till all who wan-|
w: |||
w: |||
 [DB]3 [DB] [Gc]2 [Gd]2 | (e2 e2 [Ge])[Ge][Gd][Gc] | [FB]2 [FB]2 [FA]2 [Fc]2 | [FB]6 |] %18
w: ||||
w: der in the night|Are * * led to God|and Heav’n by thee.||
w: ||||
w: ||||
V:2
 F2 | B2 B2 B>F D>E | F6 F2 | x8 | x6 F2 | B2 B2 B>F D>E | F6 F2 | x8 | x5 || x3 | x8 | x8 | x8 | %13
 (F3/2 F/ F3/2 F/ F) x3 | x8 | G4- x4 | x8 | x6 |] %18
V:3
 F,2 | B,2 B,2 B,>F, D,>E, | F,6 [D,B,]2 | [E,B,]2 [E,G,]2 [C,G,]>[C,G,] [C,C]>[C,B,] | %4
w: ~|~ ~ ~ ~ ~ ~|~ ~|~ ~ ~ ~ ~ ~|
 [F,A,]6 F,2 | B,2 B,2 B,>F, D,>E, | F,6 [D,B,]2 | [E,B,]2 [E,G,]2 F,>[F,C] [F,B,]>[F,C] | %8
w: ~ ~|~ ~ ~ ~ ~ ~|~ ~|~ ~ ~ ~ ~ ~|
 [B,,B,]4 z || z z2 | z [F,A,] [F,A,]>[F,A,] [F,A,] z z2 | %11
w: ~||Blest Word of God!|
 z [B,,B,] [B,,B,]>[B,,B,] [B,,B,]B, [A,C]>[_A,B,] | [G,B,]2 [F,B,]2 [E,B,]2 [=E,B,]2 | %13
w: send forth thy light * * *||
 [F,-B,]4 [F,A,][F,A,] [F,B,]>[F,C] | [G,B,]3 [G,B,] [E,G,]2 [D,=B,]2 | %15
w: ||
 [C,C]4- [C,C][C,C][D,=B,][E,C] | [F,D]2 [F,D]2 [F,C]2 [F,E]2 | [B,,D]6 |] %18
w: |||
V:4
 F,2 | B,2 B,2 B,>F, D,>E, | F,6 x2 | x8 | x6 F,2 | B,2 B,2 B,>F, D,>E, | F,6 x2 | x4 F,3/2 x5/2 | %8
 x5 || x3 | x8 | x5 B, x2 | x8 | x8 | x8 | x8 | x8 | x6 |] %18

